profile/assets/redraven-logo.svg

<?xml version="1.0" encoding="UTF-8" standalone="no"?>
<svg
   width="282"
   height="194.69299"
   viewBox="0 0 282 194.69299"
   fill="none"
   version="1.1"
   id="svg8"
   sodipodi:docname="logo_redraven.svg"
   inkscape:version="1.4 (e7c3feb100, 2024-10-09)"
   xmlns:inkscape="http://www.inkscape.org/namespaces/inkscape"
   xmlns:sodipodi="http://sodipodi.sourceforge.net/DTD/sodipodi-0.dtd"
   xmlns="http://www.w3.org/2000/svg"
   xmlns:svg="http://www.w3.org/2000/svg">
  <sodipodi:namedview
     id="namedview8"
     pagecolor="#ffffff"
     bordercolor="#000000"
     borderopacity="0.25"
     inkscape:showpageshadow="2"
     inkscape:pageopacity="0.0"
     inkscape:pagecheckerboard="0"
     inkscape:deskcolor="#d1d1d1"
     inkscape:zoom="0.9784292"
     inkscape:cx="396.55399"
     inkscape:cy="63.877897"
     inkscape:window-width="1920"
     inkscape:window-height="1056"
     inkscape:window-x="1920"
     inkscape:window-y="0"
     inkscape:window-maximized="1"
     inkscape:current-layer="svg8" />
  <path
     d="m 281.98,76.8635 -0.241,0.0802 -17.702,5.8639 -3.638,1.2129 c -0.231,0.0702 -0.481,0.1704 -0.732,0.2506 -0.812,0.3107 -1.724,0.6516 -2.707,1.0525 -0.23,0.1103 -0.481,0.2005 -0.721,0.3107 -8.861,3.6788 -17.392,12.4597 -26.844,25.2197 -3.819,5.153 -10.685,14.695 -20.469,24.93 -5.553,5.813 -12.068,11.848 -19.506,17.451 -0.491,0.371 -1.002,0.742 -1.504,1.113 -0.471,0.35 -0.962,0.691 -1.443,1.042 -0.672,0.471 -1.363,0.942 -2.045,1.413 -0.722,0.492 -1.453,0.983 -2.185,1.464 -0.251,0.17 -0.501,0.331 -0.752,0.501 -1.523,0.982 -3.097,1.955 -4.701,2.887 -15.567,9.092 -40.195,14.134 -61.897,13.342 -0.511,-0.02 -1.022,-0.04 -1.544,-0.081 -17.2407,-0.882 -36.336,-6.264 -57.2557,-18.233 0,0 57.4867,4.04 90.4947,-18.233 6.696,-4.521 12.38,-10.124 16.379,-17.061 0.01,-0.02 0.03,-0.04 0.04,-0.08 -0.18,0.05 -2.907,0.982 -7.397,1.674 -13.432,2.015 -42.571,1.754 -65.8868,-30.9936 C 43.4232,26.8848 21.9922,24.6294 0,23.2662 c 0,0 46.9916,-23.756488 96.8802,7.7484 4.0198,2.526 8.0488,5.4229 12.0788,8.7107 33.319,27.2146 44.235,41.4585 61.356,42.1 6.475,0.2406 12.95,-1.4434 19.175,-3.5484 5.674,-1.9146 11.066,-4.1198 16.399,-7.1169 7.588,-4.2501 15.838,-7.9489 24.348,-8.3499 4.21,-0.2005 8.4,0.4812 12.259,2.1952 2.035,0.9022 3.839,2.1251 5.664,3.4081 0.451,0.3208 2.255,1.9446 2.696,1.7943 C 274.572,61.7476 282,76.8635 282,76.8635 Z"
     fill="url(#paint0_linear_29002_108)"
     id="path3"
     style="fill:url(#paint0_linear_29002_108)" />
  <path
     d="m 281.734,76.9428 -17.692,5.874 -3.648,1.2128 c -0.231,0.0602 -0.481,0.1705 -0.722,0.2406 -0.822,0.3007 -1.724,0.6516 -2.706,1.0425 -0.231,0.1203 -0.481,0.2105 -0.722,0.3208 -8.851,3.6787 -17.391,12.4596 -26.834,25.2195 -0.12,0.151 -0.24,0.331 -0.361,0.502 -0.12,0.17 -0.24,0.35 -0.381,0.531 -3.939,5.363 -10.324,14.594 -18.704,24.919 -5.613,6.255 -11.698,12.259 -18.334,17.512 -0.12,0.11 -0.26,0.21 -0.391,0.3 -4.129,3.118 -8.46,6.015 -12.94,8.691 -0.04,0.03 -0.09,0.04 -0.141,0.08 -41.598,24.809 -94.4941,31.094 -95.4764,31.305 11.808,-6.676 21.9624,-13.332 30.6824,-19.787 h 0.021 c 0.591,-0.452 1.182,-0.883 1.754,-1.314 0.571,-0.441 1.152,-0.882 1.724,-1.303 2.275,-1.744 4.45,-3.468 6.525,-5.162 1.043,-0.852 2.045,-1.684 3.027,-2.526 0.502,-0.411 0.983,-0.832 1.464,-1.253 0.451,-0.391 0.922,-0.792 1.373,-1.183 1.895,-1.664 3.679,-3.298 5.393,-4.901 0.421,-0.391 0.832,-0.792 1.243,-1.183 1.243,-1.163 2.426,-2.336 3.538,-3.468 0.381,-0.381 0.762,-0.762 1.123,-1.133 0.381,-0.381 0.742,-0.762 1.073,-1.123 0.36,-0.361 0.711,-0.721 1.062,-1.102 0.692,-0.722 1.363,-1.454 1.995,-2.145 0.331,-0.361 0.651,-0.712 0.952,-1.063 5.022,-5.583 8.731,-10.485 11.397,-14.424 0.331,-0.481 0.632,-0.943 0.922,-1.394 1.073,-1.633 1.955,-3.077 2.647,-4.28 0.11,-0.17 0.2,-0.331 0.29,-0.501 0.472,-0.822 0.852,-1.534 1.153,-2.115 0.11,-0.2 0.211,-0.381 0.291,-0.561 0.12,-0.231 0.21,-0.421 0.301,-0.602 0.11,-0.23 0.2,-0.421 0.26,-0.561 0,-0.02 0.02,-0.05 0.03,-0.06 0.03,-0.06 0.05,-0.11 0.06,-0.141 v -0.02 c 0,0 0.03,-0.04 0.05,-0.09 C 108.012,124.586 103.02,78.9877 99.9426,47.1019 99.3512,41.1879 98.2786,35.8251 96.9054,31.0438 90.8911,10.094 79.1933,0 79.1933,0 c 0,0 44.9867,5.88398 65.3147,42.9019 8.36,15.1961 16.029,29.2896 25.822,38.9626 10.084,9.9436 22.383,15.2563 40.005,12.3694 25.931,-4.2702 53.748,-25.8815 71.43,-17.251 z"
     fill="url(#paint1_linear_29002_108)"
     id="path4"
     style="fill:url(#paint1_linear_29002_108)" />
  <path
     d="m 281.74,76.9432 -17.692,5.8739 -3.649,1.2129 c -0.23,0.0602 -0.481,0.1704 -0.722,0.2406 -0.822,0.3007 -1.724,0.6515 -2.706,1.0425 -0.231,0.1203 -0.481,0.2105 -0.722,0.3207 -8.851,3.6788 -17.391,12.4596 -26.833,25.2202 -0.121,0.15 -0.241,0.331 -0.361,0.501 -0.121,0.17 -0.241,0.351 -0.381,0.531 -3.94,5.363 -10.325,14.595 -18.705,24.919 -5.613,6.255 -11.697,12.26 -18.333,17.512 -0.121,0.11 -0.261,0.211 -0.391,0.301 -4.1,3.237 -8.42,6.164 -12.941,8.69 -0.04,0.03 -0.09,0.04 -0.14,0.081 -11.688,6.475 -26.022,8.4 -39.233,10.264 l -0.321,0.05 c -0.542,0.08 -1.093,0.15 -1.634,0.211 -0.511,0.08 -1.043,0.14 -1.574,0.2 -1.423,0.17 -2.847,0.321 -4.28,0.441 -0.832,0.08 -1.664,0.14 -2.496,0.181 -0.621,0.06 -1.243,0.11 -1.864,0.12 -0.05,0.02 -0.091,0.02 -0.141,0.02 -0.451,0.02 -0.912,0.05 -1.363,0.06 -0.601,0.03 -1.213,0.06 -1.814,0.08 -0.211,0 -0.411,0.02 -0.622,0.02 -0.481,0.01 -0.972,0.03 -1.453,0.03 -2.165,0.03 -4.31,0.01 -6.466,-0.06 -0.511,-0.02 -1.002,-0.05 -1.533,-0.08 0.591,-0.451 1.183,-0.882 1.754,-1.313 0.571,-0.441 1.153,-0.882 1.724,-1.303 2.275,-1.744 4.451,-3.468 6.526,-5.163 1.032,-0.852 2.044,-1.694 3.027,-2.526 0.501,-0.41 0.982,-0.831 1.463,-1.252 0.451,-0.391 0.922,-0.792 1.373,-1.183 1.895,-1.664 3.679,-3.298 5.393,-4.902 0.421,-0.391 0.832,-0.792 1.243,-1.183 1.243,-1.163 2.426,-2.335 3.539,-3.468 0.381,-0.381 0.761,-0.762 1.122,-1.133 0.361,-0.371 0.722,-0.741 1.073,-1.122 0.361,-0.361 0.712,-0.722 1.062,-1.103 0.692,-0.722 1.364,-1.453 1.995,-2.145 0.331,-0.361 0.652,-0.712 0.952,-1.063 5.022,-5.583 8.731,-10.485 11.398,-14.424 0.33,-0.481 0.631,-0.942 0.922,-1.393 1.072,-1.634 1.954,-3.077 2.646,-4.28 0.11,-0.171 0.2,-0.331 0.291,-0.502 0.471,-0.821 0.852,-1.533 1.152,-2.115 0.111,-0.2 0.211,-0.38 0.291,-0.561 0.12,-0.23 0.211,-0.421 0.301,-0.601 0.11,-0.231 0.2,-0.421 0.26,-0.562 0,-0.02 0.02,-0.05 0.03,-0.06 0,-0.03 0.021,-0.05 0.021,-0.06 0.02,-0.03 0.03,-0.06 0.05,-0.08 v -0.02 c 0,0 0.03,-0.04 0.05,-0.09 -55.021,3.287 -60.013,-42.3109 -63.0901,-74.1967 -0.5914,-5.914 -1.664,-11.2768 -3.0372,-16.0581 4.0293,2.526 8.0493,5.4229 12.0783,8.7007 33.32,27.2146 44.225,41.4585 61.346,42.11 10.084,9.9436 22.383,15.2562 40.005,12.3694 25.932,-4.2702 53.748,-25.8815 71.43,-17.251 z"
     fill="#ce1515"
     id="path5" />
  <defs
     id="defs8">
    <linearGradient
       id="paint0_linear_29002_108"
       x1="257.14099"
       y1="132.215"
       x2="68.447601"
       y2="92.451401"
       gradientUnits="userSpaceOnUse">
      <stop
         stop-color="#FD1515"
         id="stop5" />
      <stop
         offset="1"
         stop-color="#FADA0C"
         id="stop6" />
    </linearGradient>
    <linearGradient
       id="paint1_linear_29002_108"
       x1="269.09399"
       y1="136.925"
       x2="59.6068"
       y2="92.770401"
       gradientUnits="userSpaceOnUse">
      <stop
         stop-color="#FADA0C"
         id="stop7" />
      <stop
         offset="1"
         stop-color="#FD1515"
         id="stop8" />
    </linearGradient>
  </defs>
</svg>

<svg width="904" height="195" viewBox="0 0 904 195" fill="none" xmlns="http://www.w3.org/2000/svg">
<path d="M362.28 169L342.36 134.8H329.16V169H318.24V85.36H345.24C351.56 85.36 356.88 86.44 361.2 88.6C365.6 90.76 368.88 93.68 371.04 97.36C373.2 101.04 374.28 105.24 374.28 109.96C374.28 115.72 372.6 120.8 369.24 125.2C365.96 129.6 361 132.52 354.36 133.96L375.36 169H362.28ZM329.16 126.04H345.24C351.16 126.04 355.6 124.6 358.56 121.72C361.52 118.76 363 114.84 363 109.96C363 105 361.52 101.16 358.56 98.44C355.68 95.72 351.24 94.36 345.24 94.36H329.16V126.04ZM446.448 133.6C446.448 135.68 446.328 137.88 446.088 140.2H393.528C393.928 146.68 396.128 151.76 400.128 155.44C404.208 159.04 409.128 160.84 414.888 160.84C419.608 160.84 423.528 159.76 426.648 157.6C429.848 155.36 432.088 152.4 433.368 148.72H445.128C443.368 155.04 439.848 160.2 434.568 164.2C429.288 168.12 422.728 170.08 414.888 170.08C408.648 170.08 403.048 168.68 398.088 165.88C393.208 163.08 389.368 159.12 386.568 154C383.768 148.8 382.368 142.8 382.368 136C382.368 129.2 383.728 123.24 386.448 118.12C389.168 113 392.968 109.08 397.848 106.36C402.808 103.56 408.488 102.16 414.888 102.16C421.128 102.16 426.648 103.52 431.448 106.24C436.248 108.96 439.928 112.72 442.488 117.52C445.128 122.24 446.448 127.6 446.448 133.6ZM435.168 131.32C435.168 127.16 434.248 123.6 432.408 120.64C430.568 117.6 428.048 115.32 424.848 113.8C421.728 112.2 418.248 111.4 414.408 111.4C408.888 111.4 404.168 113.16 400.248 116.68C396.408 120.2 394.208 125.08 393.648 131.32H435.168ZM451.982 135.88C451.982 129.16 453.342 123.28 456.062 118.24C458.782 113.12 462.502 109.16 467.222 106.36C472.022 103.56 477.382 102.16 483.302 102.16C488.422 102.16 493.182 103.36 497.582 105.76C501.982 108.08 505.342 111.16 507.662 115V80.2H518.702V169H507.662V156.64C505.502 160.56 502.302 163.8 498.062 166.36C493.822 168.84 488.862 170.08 483.182 170.08C477.342 170.08 472.022 168.64 467.222 165.76C462.502 162.88 458.782 158.84 456.062 153.64C453.342 148.44 451.982 142.52 451.982 135.88ZM507.662 136C507.662 131.04 506.662 126.72 504.662 123.04C502.662 119.36 499.942 116.56 496.502 114.64C493.142 112.64 489.422 111.64 485.342 111.64C481.262 111.64 477.542 112.6 474.182 114.52C470.822 116.44 468.142 119.24 466.142 122.92C464.142 126.6 463.142 130.92 463.142 135.88C463.142 140.92 464.142 145.32 466.142 149.08C468.142 152.76 470.822 155.6 474.182 157.6C477.542 159.52 481.262 160.48 485.342 160.48C489.422 160.48 493.142 159.52 496.502 157.6C499.942 155.6 502.662 152.76 504.662 149.08C506.662 145.32 507.662 140.96 507.662 136Z" fill="#C5291F"/>
<path d="M543.276 113.92C545.196 110.16 547.916 107.24 551.436 105.16C555.036 103.08 559.396 102.04 564.516 102.04V113.32H561.636C549.396 113.32 543.276 119.96 543.276 133.24V169H532.356V103.24H543.276V113.92ZM568.241 135.88C568.241 129.16 569.601 123.28 572.321 118.24C575.041 113.12 578.761 109.16 583.481 106.36C588.281 103.56 593.601 102.16 599.441 102.16C605.201 102.16 610.201 103.4 614.441 105.88C618.681 108.36 621.841 111.48 623.921 115.24V103.24H634.961V169H623.921V156.76C621.761 160.6 618.521 163.8 614.201 166.36C609.961 168.84 605.001 170.08 599.321 170.08C593.481 170.08 588.201 168.64 583.481 165.76C578.761 162.88 575.041 158.84 572.321 153.64C569.601 148.44 568.241 142.52 568.241 135.88ZM623.921 136C623.921 131.04 622.921 126.72 620.921 123.04C618.921 119.36 616.201 116.56 612.761 114.64C609.401 112.64 605.681 111.64 601.601 111.64C597.521 111.64 593.801 112.6 590.441 114.52C587.081 116.44 584.401 119.24 582.401 122.92C580.401 126.6 579.401 130.92 579.401 135.88C579.401 140.92 580.401 145.32 582.401 149.08C584.401 152.76 587.081 155.6 590.441 157.6C593.801 159.52 597.521 160.48 601.601 160.48C605.681 160.48 609.401 159.52 612.761 157.6C616.201 155.6 618.921 152.76 620.921 149.08C622.921 145.32 623.921 140.96 623.921 136ZM673.095 158.92L693.495 103.24H705.135L679.335 169H666.615L640.815 103.24H652.575L673.095 158.92ZM771.081 133.6C771.081 135.68 770.961 137.88 770.721 140.2H718.161C718.561 146.68 720.761 151.76 724.761 155.44C728.841 159.04 733.761 160.84 739.521 160.84C744.241 160.84 748.161 159.76 751.281 157.6C754.481 155.36 756.721 152.4 758.001 148.72H769.761C768.001 155.04 764.481 160.2 759.201 164.2C753.921 168.12 747.361 170.08 739.521 170.08C733.281 170.08 727.681 168.68 722.721 165.88C717.841 163.08 714.001 159.12 711.201 154C708.401 148.8 707.001 142.8 707.001 136C707.001 129.2 708.361 123.24 711.081 118.12C713.801 113 717.601 109.08 722.481 106.36C727.441 103.56 733.121 102.16 739.521 102.16C745.761 102.16 751.281 103.52 756.081 106.24C760.881 108.96 764.561 112.72 767.121 117.52C769.761 122.24 771.081 127.6 771.081 133.6ZM759.801 131.32C759.801 127.16 758.881 123.6 757.041 120.64C755.201 117.6 752.681 115.32 749.481 113.8C746.361 112.2 742.881 111.4 739.041 111.4C733.521 111.4 728.801 113.16 724.881 116.68C721.041 120.2 718.841 125.08 718.281 131.32H759.801ZM812.735 102.04C820.735 102.04 827.215 104.48 832.175 109.36C837.135 114.16 839.615 121.12 839.615 130.24V169H828.815V131.8C828.815 125.24 827.175 120.24 823.895 116.8C820.615 113.28 816.135 111.52 810.455 111.52C804.695 111.52 800.095 113.32 796.655 116.92C793.295 120.52 791.615 125.76 791.615 132.64V169H780.695V103.24H791.615V112.6C793.775 109.24 796.695 106.64 800.375 104.8C804.135 102.96 808.255 102.04 812.735 102.04Z" fill="black"/>
<path d="M281.98 76.8635L281.739 76.9437L264.037 82.8076L260.399 84.0205C260.168 84.0907 259.918 84.1909 259.667 84.2711C258.855 84.5818 257.943 84.9227 256.96 85.3236C256.73 85.4339 256.479 85.5241 256.239 85.6343C247.378 89.3131 238.847 98.094 229.395 110.854C225.576 116.007 218.71 125.549 208.926 135.784C203.373 141.597 196.858 147.632 189.42 153.235C188.929 153.606 188.418 153.977 187.916 154.348C187.445 154.698 186.954 155.039 186.473 155.39C185.801 155.861 185.11 156.332 184.428 156.803C183.706 157.295 182.975 157.786 182.243 158.267C181.992 158.437 181.742 158.598 181.491 158.768C179.968 159.75 178.394 160.723 176.79 161.655C161.223 170.747 136.595 175.789 114.893 174.997C114.382 174.977 113.871 174.957 113.349 174.916C96.1083 174.034 77.013 168.652 56.0933 156.683C56.0933 156.683 113.58 160.723 146.588 138.45C153.284 133.929 158.968 128.326 162.967 121.389C162.977 121.369 162.997 121.349 163.007 121.309C162.827 121.359 160.1 122.291 155.61 122.983C142.178 124.998 113.039 124.737 89.7232 91.9894C43.4232 26.8848 21.9922 24.6294 0 23.2662C0 23.2662 46.9916 -0.490288 96.8802 31.0146C100.9 33.5406 104.929 36.4375 108.959 39.7253C142.278 66.9399 153.194 81.1838 170.315 81.8253C176.79 82.0659 183.265 80.3819 189.49 78.2769C195.164 76.3623 200.556 74.1571 205.889 71.16C213.477 66.9099 221.727 63.2111 230.237 62.8101C234.447 62.6096 238.637 63.2913 242.496 65.0053C244.531 65.9075 246.335 67.1304 248.16 68.4134C248.611 68.7342 250.415 70.358 250.856 70.2077C274.572 61.7476 282 76.8635 282 76.8635H281.98Z" fill="url(#paint0_linear_29002_108)"/>
<path d="M281.734 76.9428L264.042 82.8168L260.394 84.0296C260.163 84.0898 259.913 84.2001 259.672 84.2702C258.85 84.5709 257.948 84.9218 256.966 85.3127C256.735 85.433 256.485 85.5232 256.244 85.6335C247.393 89.3122 238.853 98.0931 229.41 110.853C229.29 111.004 229.17 111.184 229.049 111.355C228.929 111.525 228.809 111.705 228.668 111.886C224.729 117.249 218.344 126.48 209.964 136.805C204.351 143.06 198.266 149.064 191.63 154.317C191.51 154.427 191.37 154.527 191.239 154.617C187.11 157.735 182.779 160.632 178.299 163.308C178.259 163.338 178.209 163.348 178.158 163.388C136.56 188.197 83.6639 194.482 82.6816 194.693C94.4896 188.017 104.644 181.361 113.364 174.906H113.385C113.976 174.454 114.567 174.023 115.139 173.592C115.71 173.151 116.291 172.71 116.863 172.289C119.138 170.545 121.313 168.821 123.388 167.127C124.431 166.275 125.433 165.443 126.415 164.601C126.917 164.19 127.398 163.769 127.879 163.348C128.33 162.957 128.801 162.556 129.252 162.165C131.147 160.501 132.931 158.867 134.645 157.264C135.066 156.873 135.477 156.472 135.888 156.081C137.131 154.918 138.314 153.745 139.426 152.613C139.807 152.232 140.188 151.851 140.549 151.48C140.93 151.099 141.291 150.718 141.622 150.357C141.982 149.996 142.333 149.636 142.684 149.255C143.376 148.533 144.047 147.801 144.679 147.11C145.01 146.749 145.33 146.398 145.631 146.047C150.653 140.464 154.362 135.562 157.028 131.623C157.359 131.142 157.66 130.68 157.95 130.229C159.023 128.596 159.905 127.152 160.597 125.949C160.707 125.779 160.797 125.618 160.887 125.448C161.359 124.626 161.739 123.914 162.04 123.333C162.15 123.133 162.251 122.952 162.331 122.772C162.451 122.541 162.541 122.351 162.632 122.17C162.742 121.94 162.832 121.749 162.892 121.609C162.892 121.589 162.912 121.559 162.922 121.549C162.952 121.489 162.972 121.439 162.982 121.408V121.388C162.982 121.388 163.012 121.348 163.032 121.298C108.012 124.586 103.02 78.9877 99.9426 47.1019C99.3512 41.1879 98.2786 35.8251 96.9054 31.0438C90.8911 10.094 79.1933 0 79.1933 0C79.1933 0 124.18 5.88398 144.508 42.9019C152.868 58.098 160.537 72.1915 170.33 81.8645C180.414 91.8081 192.713 97.1208 210.335 94.2339C236.266 89.9637 264.083 68.3524 281.765 76.9829L281.734 76.9428Z" fill="url(#paint1_linear_29002_108)"/>
<path d="M281.74 76.9432L264.048 82.8171L260.399 84.03C260.169 84.0902 259.918 84.2004 259.677 84.2706C258.855 84.5713 257.953 84.9221 256.971 85.3131C256.74 85.4334 256.49 85.5236 256.249 85.6338C247.398 89.3126 238.858 98.0934 229.416 110.854C229.295 111.004 229.175 111.185 229.055 111.355C228.934 111.525 228.814 111.706 228.674 111.886C224.734 117.249 218.349 126.481 209.969 136.805C204.356 143.06 198.272 149.065 191.636 154.317C191.515 154.427 191.375 154.528 191.245 154.618C187.145 157.855 182.825 160.782 178.304 163.308C178.264 163.338 178.214 163.348 178.164 163.389C166.476 169.864 152.142 171.789 138.931 173.653L138.61 173.703C138.068 173.783 137.517 173.853 136.976 173.914C136.465 173.994 135.933 174.054 135.402 174.114C133.979 174.284 132.555 174.435 131.122 174.555C130.29 174.635 129.458 174.695 128.626 174.736C128.005 174.796 127.383 174.846 126.762 174.856C126.712 174.876 126.671 174.876 126.621 174.876C126.17 174.896 125.709 174.926 125.258 174.936C124.657 174.966 124.045 174.996 123.444 175.016C123.233 175.016 123.033 175.036 122.822 175.036C122.341 175.046 121.85 175.066 121.369 175.066C119.204 175.096 117.059 175.076 114.903 175.006C114.392 174.986 113.901 174.956 113.37 174.926C113.961 174.475 114.553 174.044 115.124 173.613C115.695 173.172 116.277 172.731 116.848 172.31C119.123 170.566 121.299 168.842 123.374 167.147C124.406 166.295 125.418 165.453 126.401 164.621C126.902 164.211 127.383 163.79 127.864 163.369C128.315 162.978 128.786 162.577 129.237 162.186C131.132 160.522 132.916 158.888 134.63 157.284C135.051 156.893 135.462 156.492 135.873 156.101C137.116 154.938 138.299 153.766 139.412 152.633C139.793 152.252 140.173 151.871 140.534 151.5C140.895 151.129 141.256 150.759 141.607 150.378C141.968 150.017 142.319 149.656 142.669 149.275C143.361 148.553 144.033 147.822 144.664 147.13C144.995 146.769 145.316 146.418 145.616 146.067C150.638 140.484 154.347 135.582 157.014 131.643C157.344 131.162 157.645 130.701 157.936 130.25C159.008 128.616 159.89 127.173 160.582 125.97C160.692 125.799 160.782 125.639 160.873 125.468C161.344 124.647 161.725 123.935 162.025 123.353C162.136 123.153 162.236 122.973 162.316 122.792C162.436 122.562 162.527 122.371 162.617 122.191C162.727 121.96 162.817 121.77 162.877 121.629C162.877 121.609 162.897 121.579 162.907 121.569C162.907 121.539 162.928 121.519 162.928 121.509C162.948 121.479 162.958 121.449 162.978 121.429V121.409C162.978 121.409 163.008 121.369 163.028 121.319C108.007 124.606 103.015 79.0081 99.9379 47.1223C99.3465 41.2083 98.2739 35.8455 96.9007 31.0642C100.93 33.5902 104.95 36.4871 108.979 39.7649C142.299 66.9795 153.204 81.2234 170.325 81.8749C180.409 91.8185 192.708 97.1311 210.33 94.2443C236.262 89.9741 264.078 68.3628 281.76 76.9933L281.74 76.9432Z" fill="#CE1515"/>
<defs>
<linearGradient id="paint0_linear_29002_108" x1="257.141" y1="132.215" x2="68.4476" y2="92.4514" gradientUnits="userSpaceOnUse">
<stop stop-color="#FD1515"/>
<stop offset="1" stop-color="#FADA0C"/>
</linearGradient>
<linearGradient id="paint1_linear_29002_108" x1="269.094" y1="136.925" x2="59.6068" y2="92.7704" gradientUnits="userSpaceOnUse">
<stop stop-color="#FADA0C"/>
<stop offset="1" stop-color="#FD1515"/>
</linearGradient>
</defs>
</svg>
